assets/Wood/Flat/wood_flat.svg

<svg width="32" height="32" viewBox="0 0 32 32" fill="none" xmlns="http://www.w3.org/2000/svg">
<path d="M24 6.5H8V25.5C8 27.433 11.5817 29 16 29C20.4183 29 24 27.433 24 25.5V6.5Z" fill="#6D4534"/>
<path d="M15.9999 9.99995C20.4182 9.99995 23.9999 8.43295 23.9999 6.49995C23.9999 4.56696 20.4182 2.99995 15.9999 2.99995C11.5817 2.99995 7.99994 4.56696 7.99994 6.49995C7.99994 7.13672 8.3207 7.68135 8.99994 8.19575C9.02224 8.21333 8.97697 8.17836 8.99994 8.19575V14.5C8.99994 14.7761 9.2238 15 9.49994 15C9.77608 15 9.99994 14.7761 9.99994 14.5V8.8151C10.0269 8.8289 9.97247 8.80148 9.99994 8.8151C11.4672 9.5655 13.5658 9.99995 15.9999 9.99995Z" fill="#A56953"/>
<path d="M27.3536 10.7677L24 14.1213L24 25.5C24 26.3876 23.2447 27.1981 21.9999 27.8151V23.5C21.9999 23.2239 21.7761 23 21.4999 23C21.2264 23 21.0042 23.2196 21 23.4921V13.9142C21 13.2511 21.2634 12.6153 21.7322 12.1464L25.2322 8.64641C25.6228 8.25588 26.2559 8.25589 26.6464 8.64641L27.3536 9.35352C27.7441 9.74404 27.7441 10.3772 27.3536 10.7677Z" fill="#A56953"/>
<path d="M4.14641 19.2677L7.99996 23.1213V25.5C7.99997 26.6053 9.17104 27.5909 11 28.2323V22.9142C11 22.2511 10.7366 21.6152 10.2677 21.1464L6.26773 17.1464C5.8772 16.7559 5.24404 16.7559 4.85352 17.1464L4.14641 17.8535C3.75588 18.244 3.75588 18.8772 4.14641 19.2677Z" fill="#A56953"/>
<path d="M11.9999 15.5C11.9999 15.2239 12.2238 15 12.4999 15C12.7761 15 12.9999 15.2239 12.9999 15.5V19.5C12.9999 19.7761 12.7761 20 12.4999 20C12.2238 20 11.9999 19.7761 11.9999 19.5V15.5Z" fill="#A56953"/>
<path d="M23 6.25C23 7.76878 19.866 9 16 9C12.134 9 9 7.76878 9 6.25C9 4.73122 12.134 3.5 16 3.5C19.866 3.5 23 4.73122 23 6.25Z" fill="#F3AD61"/>
<path d="M16 8C18.7614 8 21 7.16053 21 6.125C21 5.08947 18.7614 4.25 16 4.25C13.2386 4.25 11 5.08947 11 6.125C11 7.16053 13.2386 8 16 8ZM16 7C14.3431 7 13 6.55228 13 6C13 5.44772 14.3431 5 16 5C17.6569 5 19 5.44772 19 6C19 6.55228 17.6569 7 16 7Z" fill="#6D4534"/>
</svg>

<svg xmlns="http://www.w3.org/2000/svg" width="32" height="32" fill="none"><path fill="#6D4534" d="M24 6.5H8v19c0 1.933 3.582 3.5 8 3.5s8-1.567 8-3.5v-19Z"/><path fill="#A56953" d="M16 10c4.418 0 8-1.567 8-3.5S20.418 3 16 3 8 4.567 8 6.5c0 .637.32 1.181 1 1.696.022.017-.023-.018 0 0V14.5a.5.5 0 0 0 1 0V8.815c.027.014-.028-.014 0 0 1.467.75 3.566 1.185 6 1.185ZM27.354 10.768 24 14.12V25.5c0 .888-.755 1.698-2 2.315V23.5a.5.5 0 0 0-1-.008v-9.578a2.5 2.5 0 0 1 .732-1.768l3.5-3.5a1 1 0 0 1 1.414 0l.708.708a1 1 0 0 1 0 1.414ZM4.146 19.268 8 23.12V25.5c0 1.105 1.171 2.09 3 2.732v-5.318a2.5 2.5 0 0 0-.732-1.768l-4-4a1 1 0 0 0-1.414 0l-.708.707a1 1 0 0 0 0 1.415ZM12 15.5a.5.5 0 0 1 1 0v4a.5.5 0 1 1-1 0v-4Z"/><path fill="#F3AD61" d="M23 6.25C23 7.769 19.866 9 16 9S9 7.769 9 6.25s3.134-2.75 7-2.75 7 1.231 7 2.75Z"/><path fill="#6D4534" d="M16 8c2.761 0 5-.84 5-1.875 0-1.036-2.239-1.875-5-1.875s-5 .84-5 1.875C11 7.161 13.239 8 16 8Zm0-1c-1.657 0-3-.448-3-1s1.343-1 3-1 3 .448 3 1-1.343 1-3 1Z"/></svg>
